icons/3_Generic/RSS.svg

<svg width="1024" height="1024" viewBox="0 0 1024 1024" fill="none" xmlns="http://www.w3.org/2000/svg">
<g clip-path="url(#clip0_3_434)">
<path d="M512 1024C794.77 1024 1024 794.77 1024 512C1024 229.23 794.77 0 512 0C229.23 0 0 229.23 0 512C0 794.77 229.23 1024 512 1024Z" fill="#8C72BD"/>
<path d="M459.14 564.862C476.428 582.054 490.133 602.506 499.463 625.031C508.792 647.557 513.56 671.71 513.49 696.092C513.49 704.882 506.37 712.002 497.58 712.002C488.79 712.002 481.67 704.882 481.67 696.092C481.67 611.172 412.83 542.322 327.9 542.322C319.11 542.322 311.99 535.202 311.99 526.412C311.99 517.622 319.11 510.502 327.9 510.502C377.15 510.362 424.4 529.932 459.13 564.852L459.14 564.862ZM327.91 383.262C319.12 383.262 312 390.382 312 399.172C312 407.962 319.12 415.082 327.91 415.082C483.11 415.082 608.93 540.902 608.93 696.102C608.93 704.892 616.05 712.012 624.84 712.012C633.63 712.012 640.75 704.892 640.75 696.102C640.75 523.332 500.69 383.262 327.91 383.262ZM639.1 384.902C598.329 343.908 549.832 311.407 496.416 289.282C443.001 267.156 385.727 255.844 327.91 256.002C319.12 256.002 312 263.122 312 271.912C312 280.702 319.12 287.822 327.91 287.822C381.545 287.679 434.676 298.175 484.228 318.703C533.78 339.23 578.769 369.382 616.59 407.412C654.621 445.233 684.772 490.222 705.3 539.773C725.827 589.325 736.323 642.456 736.18 696.092C736.18 704.882 743.3 712.002 752.09 712.002C760.88 712.002 768 704.882 768 696.092C768.158 638.275 756.846 581.001 734.72 527.585C712.595 474.17 680.094 425.673 639.1 384.902ZM345 646.002C326.77 646.002 312 660.772 312 679.002C312 697.232 326.77 712.002 345 712.002C363.23 712.002 378 697.232 378 679.002C378 660.772 363.23 646.002 345 646.002Z" fill="white"/>
</g>
<defs>
<clipPath id="clip0_3_434">
<rect width="1024" height="1024" fill="white"/>
</clipPath>
</defs>
</svg>

<svg width="1024" height="1024" fill="none" xmlns="http://www.w3.org/2000/svg"><g clip-path="url(#a)"><path d="M512 1024c282.77 0 512-229.23 512-512S794.77 0 512 0 0 229.23 0 512s229.23 512 512 512Z" fill="#8C72BD"/><path d="M459.14 564.862a184.335 184.335 0 0 1 54.35 131.23c0 8.79-7.12 15.91-15.91 15.91s-15.91-7.12-15.91-15.91c0-84.92-68.84-153.77-153.77-153.77-8.79 0-15.91-7.12-15.91-15.91s7.12-15.91 15.91-15.91c49.25-.14 96.5 19.43 131.23 54.35l.01.01Zm-131.23-181.6c-8.79 0-15.91 7.12-15.91 15.91s7.12 15.91 15.91 15.91c155.2 0 281.02 125.82 281.02 281.02 0 8.79 7.12 15.91 15.91 15.91s15.91-7.12 15.91-15.91c0-172.77-140.06-312.84-312.84-312.84Zm311.19 1.64a437.202 437.202 0 0 0-311.19-128.9c-8.79 0-15.91 7.12-15.91 15.91s7.12 15.91 15.91 15.91a405.604 405.604 0 0 1 288.68 119.59 405.609 405.609 0 0 1 119.59 288.68c0 8.79 7.12 15.91 15.91 15.91s15.91-7.12 15.91-15.91a437.202 437.202 0 0 0-128.9-311.19ZM345 646.002c-18.23 0-33 14.77-33 33s14.77 33 33 33 33-14.77 33-33-14.77-33-33-33Z" fill="#fff"/></g><defs><clipPath id="a"><path fill="#fff" d="M0 0h1024v1024H0z"/></clipPath></defs></svg>
